X: 2683
T: Banks Of Allan, The
R: jig
M: 6/8
K: Dmajor
F3 FED|FG^G Acd|B2d AFD|FGF EDE|
FEG FED|FG^G Acd|B2 d AFD|FGF EDE:|
|:f3 fed|fg^g a2=g|f3 fe|d gbb bag|
fga efg|def fed|B/c/dB AFD|FGF EFE:|

